public/assets/img/icon/service-icon_2-3.svg

<svg width="63" height="55" viewBox="0 0 63 55" fill="none" xmlns="http://www.w3.org/2000/svg">
<path d="M39.5394 30.8149L33.6811 28.1101C30.1205 26.4646 25.6186 28.206 22.3666 32.0661L17.2539 29.2718C16.1193 28.7441 14.5219 29.7101 13.7633 31.3465C13.3952 32.1045 13.262 32.9552 13.3808 33.7894C13.4122 34.1071 13.5198 34.4127 13.6945 34.6799C13.8693 34.9472 14.1059 35.1684 14.3844 35.3246L19.1185 37.9179C17.1592 43.828 18.6296 49.7394 22.8035 51.6624L28.6605 54.3659C29.5786 54.7879 30.5779 55.0043 31.5883 54.9999C33.2727 54.9609 34.9154 54.4681 36.3431 53.5736C39.0555 51.8678 41.1945 49.3882 42.4841 46.455C45.4832 39.9705 44.1619 32.9465 39.5394 30.8149ZM15.3491 33.6428C15.3248 33.586 15.3078 33.5263 15.2986 33.4652C15.2496 33.0199 15.3293 32.57 15.5281 32.1686C15.7102 31.6972 16.0597 31.3094 16.5096 31.0794L21.1853 33.6377C20.6837 34.3959 20.2398 35.1908 19.8576 36.0157C19.8472 36.0403 19.8381 36.065 19.8264 36.0896L15.3491 33.6428ZM21.6236 36.8365C24.1728 31.3167 29.2142 28.1969 32.8668 29.88L34.3022 30.5439C33.4454 30.7942 32.6238 31.1519 31.8567 31.6084C29.1444 33.3137 27.0054 35.7928 25.7158 38.7257C24.32 41.6101 23.8197 44.8463 24.2791 48.0175C24.4304 48.8969 24.6918 49.7538 25.0571 50.568L23.6308 49.9067C19.9704 48.2159 19.0744 42.3524 21.6236 36.8365ZM40.7193 45.6537C39.594 48.2289 37.7246 50.4089 35.3512 51.9139C34.5048 52.5045 33.5257 52.8769 32.5008 52.9982C31.4759 53.1194 30.4369 52.9857 29.4761 52.6089C28.5662 52.1209 27.7909 51.4159 27.2189 50.5563C26.6468 49.6968 26.2958 48.7094 26.1969 47.6816C25.8027 44.8988 26.2497 42.0616 27.4806 39.5348C28.6053 36.9592 30.4748 34.779 32.8487 33.2746C33.9769 32.5627 35.2755 32.1664 36.609 32.1271C37.3366 32.1227 38.0564 32.2767 38.7186 32.5783C42.3726 34.2652 43.2685 40.1287 40.7193 45.6537Z" fill="#F41E1E"/>
<path d="M16.1414 42.4186C15.3859 42.8076 14.5546 43.0269 13.7055 43.0611C12.8565 43.0954 12.0102 42.9438 11.2258 42.6169C9.11484 41.6419 7.82986 39.1484 7.78967 35.9457C7.78626 35.69 7.6823 35.446 7.50029 35.2664C7.31828 35.0868 7.07287 34.9862 6.81718 34.9862H6.80421C6.6765 34.9879 6.55037 35.0147 6.43303 35.0651C6.31569 35.1156 6.20944 35.1886 6.12034 35.2802C6.03123 35.3717 5.96103 35.4798 5.91374 35.5985C5.86644 35.7171 5.84298 35.8439 5.8447 35.9716C5.8481 37.559 6.1801 39.1284 6.81977 40.5812L5.36753 39.9121C4.45764 39.424 3.68222 38.719 3.10999 37.8595C2.53776 37 2.18638 36.0126 2.08701 34.9849C1.69385 32.2019 2.14132 29.3649 3.37199 26.838C4.49709 24.2627 6.36653 22.0826 8.74011 20.5778C9.5867 19.9883 10.5655 19.6164 11.5899 19.495C12.6144 19.3735 13.653 19.5063 14.6139 19.8815C14.6333 19.8913 14.6532 19.8999 14.6736 19.9075L16.083 20.5558C14.1567 21.242 12.395 22.3232 10.9108 23.7299C9.4266 25.1366 8.25266 26.8379 7.46421 28.7247C6.89761 29.9443 6.47047 31.224 6.1909 32.5394C6.1375 32.7916 6.18644 33.0548 6.32698 33.2709C6.46752 33.4871 6.68815 33.6386 6.94036 33.6921C7.00733 33.706 7.07555 33.713 7.14394 33.7129C7.36661 33.7126 7.58243 33.6358 7.75522 33.4953C7.92802 33.3549 8.0473 33.1593 8.09308 32.9414C8.34314 31.7687 8.72415 30.6278 9.22895 29.5403C11.7782 24.0217 16.8208 20.8942 20.4722 22.585C21.4219 23.0996 22.2252 23.847 22.8068 24.7572C23.3883 25.6674 23.729 26.7105 23.7968 27.7885C23.815 27.9149 23.8579 28.0365 23.9232 28.1464C23.9884 28.2562 24.0746 28.3521 24.1769 28.4286C24.2792 28.5051 24.3955 28.5608 24.5193 28.5923C24.6431 28.6239 24.7719 28.6307 24.8983 28.6125C25.0247 28.5943 25.1463 28.5513 25.2562 28.4861C25.366 28.4209 25.4619 28.3347 25.5384 28.2324C25.6149 28.1301 25.6706 28.0138 25.7021 27.89C25.7337 27.7662 25.7405 27.6374 25.7223 27.511C25.6056 26.1126 25.138 24.7663 24.3629 23.5965C23.5878 22.4268 22.5301 21.4715 21.2878 20.819L15.4321 18.1129C15.411 18.1027 15.3893 18.0936 15.3673 18.0857C14.1273 17.5884 12.7843 17.4029 11.456 17.5453C10.1277 17.6877 8.85454 18.1538 7.74817 18.9026C5.03617 20.6083 2.89727 23.0872 1.60725 26.0199C-1.3919 32.5225 -0.0719082 39.5439 4.55194 41.6795L10.4102 44.383C11.3252 44.8009 12.3204 45.0142 13.3264 45.008C14.5734 44.9935 15.8034 44.7165 16.9362 44.195C17.1718 44.0896 17.3558 43.8949 17.4479 43.6538C17.5399 43.4127 17.5324 43.1449 17.427 42.9093C17.3216 42.6738 17.1269 42.4897 16.8858 42.3977C16.6447 42.3056 16.3769 42.3132 16.1414 42.4186Z" fill="#F41E1E"/>
<path d="M45.7036 36.0092C45.4457 36.0123 45.1996 36.1178 45.0194 36.3023C44.8392 36.4869 44.7397 36.7355 44.7428 36.9934C44.7459 37.2513 44.8513 37.4974 45.0359 37.6776C45.2205 37.8578 45.4691 37.9573 45.727 37.9542H45.7568C47.0243 37.9225 48.26 37.5506 49.3345 36.8775C50.4089 36.2044 51.2827 35.2548 51.8642 34.1281C52.4458 33.0014 52.7137 31.7391 52.64 30.4733C52.5663 29.2076 52.1536 27.9849 51.4452 26.9334C50.7368 25.8818 49.7588 25.04 48.6134 24.4962C47.4681 23.9523 46.1976 23.7264 44.935 23.8421C43.6723 23.9577 42.464 24.4107 41.4365 25.1536C40.4091 25.8965 39.6002 26.9019 39.0946 28.0647C38.9915 28.3011 38.9864 28.5688 39.0807 28.809C39.1749 29.0491 39.3607 29.2419 39.5971 29.3451C39.8335 29.4483 40.1012 29.4533 40.3414 29.3591C40.5815 29.2648 40.7744 29.0791 40.8775 28.8427C41.2439 27.9997 41.8303 27.2707 42.5751 26.7321C43.3199 26.1935 44.1958 25.865 45.1111 25.781C46.0264 25.697 46.9475 25.8607 47.7779 26.2548C48.6083 26.649 49.3174 27.2591 49.8311 28.0213C50.3448 28.7836 50.6441 29.6699 50.6977 30.5875C50.7513 31.5051 50.5572 32.4202 50.1358 33.2371C49.7144 34.054 49.0811 34.7425 48.3023 35.2307C47.5234 35.7188 46.6277 35.9886 45.7088 36.0118L45.7036 36.0092Z" fill="#F41E1E"/>
<path d="M60.5762 4.82097C59.6347 3.34007 58.3338 2.12145 56.7946 1.27853C55.2555 0.435612 53.5281 -0.00420093 51.7732 3.02426e-05H39.4875C37.7336 0.000319582 36.0081 0.442216 34.4699 1.28497C32.9318 2.12772 31.6306 3.34419 30.6864 4.82221C29.7422 6.30022 29.1853 7.99219 29.0672 9.74208C28.949 11.492 29.2734 13.2434 30.0103 14.835L33.2895 21.9134C32.544 22.9352 31.9277 24.0454 31.4548 25.2185C31.365 25.4566 31.3722 25.7203 31.4747 25.9532C31.5771 26.1861 31.7668 26.3695 32.0029 26.4642C32.2391 26.5589 32.5029 26.5572 32.7379 26.4596C32.9728 26.362 33.1602 26.1762 33.2597 25.9421C33.7268 24.7806 34.3545 23.6903 35.1243 22.703C35.135 22.6906 35.1449 22.6776 35.1541 22.6641C36.0147 21.5668 37.0441 20.6131 38.2038 19.8387C38.2116 19.8387 38.2155 19.8284 38.2233 19.8258C39.7014 18.8512 41.3595 18.1822 43.1 17.8581C44.8405 17.5341 46.6283 17.5615 48.3581 17.9389C50.0879 18.3162 51.7247 19.0358 53.1721 20.0553C54.6196 21.0748 55.8484 22.3735 56.7864 23.8751C57.7243 25.3767 58.3523 27.0508 58.6334 28.7988C58.9146 30.5468 58.8431 32.3333 58.4234 34.0533C58.0036 35.7733 57.244 37.3919 56.1892 38.8138C55.1344 40.2358 53.8058 41.4323 52.2815 42.333H45.6271C45.3692 42.333 45.1219 42.4354 44.9395 42.6178C44.7571 42.8002 44.6547 43.0475 44.6547 43.3055C44.6547 43.5634 44.7571 43.8107 44.9395 43.9931C45.1219 44.1755 45.3692 44.2779 45.6271 44.2779H52.537C52.7041 44.2765 52.8681 44.2318 53.0128 44.1483C54.8812 43.1049 56.5076 41.678 57.7854 39.9614C59.0631 38.2448 59.9633 36.2773 60.4267 34.1882C60.89 32.099 60.9062 29.9354 60.4741 27.8396C60.042 25.7437 59.1713 23.763 57.9194 22.0275L61.2517 14.8337C61.9927 13.2432 62.3193 11.4911 62.2012 9.74048C62.083 7.98984 61.5241 6.29753 60.5762 4.82097ZM59.487 14.0168L56.5436 20.3704C55.958 19.7627 55.323 19.2045 54.6453 18.7016L57.2866 12.9963C57.7154 12.0707 57.9042 11.0519 57.8355 10.0341C57.7668 9.01625 57.4428 8.03212 56.8934 7.17252C56.344 6.31292 55.587 5.60556 54.6921 5.11571C53.7972 4.62586 52.7934 4.36931 51.7732 4.36973H50.5544C50.2965 4.36973 50.0491 4.47219 49.8668 4.65457C49.6844 4.83694 49.5819 5.0843 49.5819 5.34222C49.5819 5.60014 49.6844 5.84749 49.8668 6.02987C50.0491 6.21225 50.2965 6.3147 50.5544 6.3147H51.7694C52.4632 6.31411 53.1459 6.48838 53.7546 6.82141C54.3632 7.15444 54.8781 7.63549 55.2517 8.22011C55.6253 8.80474 55.8456 9.47409 55.8921 10.1663C55.9386 10.8586 55.81 11.5514 55.518 12.1807L53.0025 17.6202C50.7498 16.3549 48.2116 15.6848 45.6279 15.6732C43.0442 15.6617 40.5002 16.309 38.2363 17.554L35.7467 12.1807C35.4547 11.5515 35.3261 10.8588 35.3725 10.1666C35.419 9.47452 35.6391 8.80525 36.0126 8.22066C36.386 7.63607 36.9008 7.155 37.5092 6.82188C38.1177 6.48876 38.8003 6.31433 39.494 6.3147H47.6512C47.9091 6.3147 48.1565 6.21225 48.3389 6.02987C48.5212 5.84749 48.6237 5.60014 48.6237 5.34222C48.6237 5.0843 48.5212 4.83694 48.3389 4.65457C48.1565 4.47219 47.9091 4.36973 47.6512 4.36973H39.4875C38.4674 4.37 37.4637 4.62712 36.5691 5.11738C35.6745 5.60764 34.9177 6.31524 34.3686 7.17496C33.8194 8.03468 33.4955 9.01882 33.4268 10.0366C33.3581 11.0545 33.5468 12.0732 33.9755 12.9989L36.5765 18.6121C35.8965 19.1099 35.2594 19.6638 34.6718 20.2679L31.7764 14.0155C31.1759 12.7205 30.9113 11.295 31.007 9.87073C31.1027 8.44646 31.5557 7.06925 32.3241 5.86621C33.0925 4.66317 34.1515 3.67307 35.4035 2.9873C36.6555 2.30152 38.06 1.94217 39.4875 1.94241H51.7732C53.2007 1.94218 54.6051 2.30144 55.8571 2.98705C57.1091 3.67267 58.1682 4.66255 58.9368 5.86536C59.7054 7.06818 60.1587 8.4452 60.2548 9.86936C60.351 11.2935 60.0869 12.719 59.487 14.0142V14.0168Z" fill="#F41E1E"/>
</svg>

<?xml version="1.0" encoding="UTF-8"?>
<svg id="Camada_1" data-name="Camada 1" xmlns="http://www.w3.org/2000/svg" viewBox="0 0 62.22 55">
  <defs>
    <style>
      .cls-1 {
        fill: #f1c40f;
      }
    </style>
  </defs>
  <path class="cls-1" d="M39.54,30.81l-5.86-2.7c-3.56-1.65-8.06,.1-11.31,3.96l-5.11-2.79c-1.13-.53-2.73,.44-3.49,2.07-.37,.76-.5,1.61-.38,2.44,.03,.32,.14,.62,.31,.89,.17,.27,.41,.49,.69,.64l4.73,2.59c-1.96,5.91-.49,11.82,3.68,13.74l5.86,2.7c.92,.42,1.92,.64,2.93,.63,1.68-.04,3.33-.53,4.75-1.43,2.71-1.71,4.85-4.19,6.14-7.12,3-6.48,1.68-13.51-2.94-15.64Zm-24.19,2.83c-.02-.06-.04-.12-.05-.18-.05-.45,.03-.9,.23-1.3,.18-.47,.53-.86,.98-1.09l4.68,2.56c-.5,.76-.95,1.55-1.33,2.38-.01,.02-.02,.05-.03,.07l-4.48-2.45Zm6.27,3.19c2.55-5.52,7.59-8.64,11.24-6.96l1.44,.66c-.86,.25-1.68,.61-2.45,1.06-2.71,1.71-4.85,4.18-6.14,7.12-1.4,2.88-1.9,6.12-1.44,9.29,.15,.88,.41,1.74,.78,2.55l-1.43-.66c-3.66-1.69-4.56-7.55-2.01-13.07Zm19.1,8.82c-1.13,2.58-2.99,4.76-5.37,6.26-.85,.59-1.83,.96-2.85,1.08-1.02,.12-2.06-.01-3.02-.39-.91-.49-1.69-1.19-2.26-2.05-.57-.86-.92-1.85-1.02-2.87-.39-2.78,.05-5.62,1.28-8.15,1.12-2.58,2.99-4.76,5.37-6.26,1.13-.71,2.43-1.11,3.76-1.15,.73,0,1.45,.15,2.11,.45,3.65,1.69,4.55,7.55,2,13.08Z"/>
  <path class="cls-1" d="M16.14,42.42c-.76,.39-1.59,.61-2.44,.64-.85,.03-1.7-.12-2.48-.44-2.11-.98-3.4-3.47-3.44-6.67,0-.26-.11-.5-.29-.68-.18-.18-.43-.28-.68-.28h-.01c-.13,0-.25,.03-.37,.08-.12,.05-.22,.12-.31,.22-.09,.09-.16,.2-.21,.32-.05,.12-.07,.25-.07,.37,0,1.59,.34,3.16,.98,4.61l-1.45-.67c-.91-.49-1.69-1.19-2.26-2.05-.57-.86-.92-1.85-1.02-2.87-.39-2.78,.05-5.62,1.28-8.15,1.13-2.58,2.99-4.76,5.37-6.26,.85-.59,1.83-.96,2.85-1.08,1.02-.12,2.06,.01,3.02,.39,.02,0,.04,.02,.06,.03l1.41,.65c-1.93,.69-3.69,1.77-5.17,3.17-1.48,1.41-2.66,3.11-3.45,4.99-.57,1.22-.99,2.5-1.27,3.81-.05,.25,0,.52,.14,.73,.14,.22,.36,.37,.61,.42,.07,.01,.14,.02,.2,.02,.22,0,.44-.08,.61-.22,.17-.14,.29-.34,.34-.55,.25-1.17,.63-2.31,1.14-3.4,2.55-5.52,7.59-8.65,11.24-6.96,.95,.51,1.75,1.26,2.33,2.17,.58,.91,.92,1.95,.99,3.03,.02,.13,.06,.25,.13,.36,.07,.11,.15,.21,.25,.28,.1,.08,.22,.13,.34,.16,.12,.03,.25,.04,.38,.02s.25-.06,.36-.13c.11-.07,.21-.15,.28-.25,.08-.1,.13-.22,.16-.34,.03-.12,.04-.25,.02-.38-.12-1.4-.58-2.74-1.36-3.91-.78-1.17-1.83-2.12-3.08-2.78l-5.86-2.71s-.04-.02-.06-.03c-1.24-.5-2.58-.68-3.91-.54-1.33,.14-2.6,.61-3.71,1.36-2.71,1.71-4.85,4.18-6.14,7.12-3,6.5-1.68,13.52,2.94,15.66l5.86,2.7c.91,.42,1.91,.63,2.92,.62,1.25-.01,2.48-.29,3.61-.81,.24-.11,.42-.3,.51-.54,.09-.24,.08-.51-.02-.74-.11-.24-.3-.42-.54-.51-.24-.09-.51-.08-.74,.02Z"/>
  <path class="cls-1" d="M45.7,36.01c-.26,0-.5,.11-.68,.29-.18,.18-.28,.43-.28,.69,0,.26,.11,.5,.29,.68,.18,.18,.43,.28,.69,.28h.03c1.27-.03,2.5-.4,3.58-1.08,1.07-.67,1.95-1.62,2.53-2.75,.58-1.13,.85-2.39,.78-3.65-.07-1.27-.49-2.49-1.19-3.54-.71-1.05-1.69-1.89-2.83-2.44-1.15-.54-2.42-.77-3.68-.65-1.26,.12-2.47,.57-3.5,1.31-1.03,.74-1.84,1.75-2.34,2.91-.1,.24-.11,.5-.01,.74,.09,.24,.28,.43,.52,.54,.24,.1,.5,.11,.74,.01,.24-.09,.43-.28,.54-.52,.37-.84,.95-1.57,1.7-2.11,.74-.54,1.62-.87,2.54-.95,.92-.08,1.84,.08,2.67,.47,.83,.39,1.54,1,2.05,1.77,.51,.76,.81,1.65,.87,2.57,.05,.92-.14,1.83-.56,2.65-.42,.82-1.05,1.51-1.83,1.99-.78,.49-1.67,.76-2.59,.78h0Z"/>
  <path class="cls-1" d="M60.58,4.82c-.94-1.48-2.24-2.7-3.78-3.54C55.26,.44,53.53,0,51.77,0h-12.29c-1.75,0-3.48,.44-5.02,1.28-1.54,.84-2.84,2.06-3.78,3.54-.94,1.48-1.5,3.17-1.62,4.92-.12,1.75,.21,3.5,.94,5.09l3.28,7.08c-.75,1.02-1.36,2.13-1.83,3.31-.09,.24-.08,.5,.02,.73,.1,.23,.29,.42,.53,.51,.24,.09,.5,.09,.74,0,.23-.1,.42-.28,.52-.52,.47-1.16,1.09-2.25,1.86-3.24,.01-.01,.02-.03,.03-.04,.86-1.1,1.89-2.05,3.05-2.83,0,0,.01-.01,.02-.01,1.48-.97,3.14-1.64,4.88-1.97,1.74-.32,3.53-.3,5.26,.08,1.73,.38,3.37,1.1,4.81,2.12,1.45,1.02,2.68,2.32,3.61,3.82,.94,1.5,1.57,3.18,1.85,4.92,.28,1.75,.21,3.53-.21,5.25-.42,1.72-1.18,3.34-2.23,4.76-1.05,1.42-2.38,2.62-3.91,3.52h-6.65c-.26,0-.51,.1-.69,.28-.18,.18-.28,.43-.28,.69s.1,.51,.28,.69,.43,.28,.69,.28h6.91c.17,0,.33-.05,.48-.13,1.87-1.04,3.49-2.47,4.77-4.19,1.28-1.72,2.18-3.68,2.64-5.77,.46-2.09,.48-4.25,.05-6.35-.43-2.1-1.3-4.08-2.55-5.81l3.33-7.19c.74-1.59,1.07-3.34,.95-5.09-.12-1.75-.68-3.44-1.62-4.92Zm-1.09,9.2l-2.94,6.35c-.59-.61-1.22-1.17-1.9-1.67l2.64-5.71c.43-.93,.62-1.94,.55-2.96-.07-1.02-.39-2-.94-2.86-.55-.86-1.31-1.57-2.2-2.06-.89-.49-1.9-.75-2.92-.75h-1.22c-.26,0-.51,.1-.69,.28-.18,.18-.28,.43-.28,.69s.1,.51,.28,.69c.18,.18,.43,.28,.69,.28h1.22c.69,0,1.38,.17,1.99,.51,.61,.33,1.12,.81,1.5,1.4,.37,.58,.59,1.25,.64,1.95,.05,.69-.08,1.39-.37,2.01l-2.52,5.44c-2.25-1.27-4.79-1.94-7.37-1.95-2.58-.01-5.13,.64-7.39,1.88l-2.49-5.37c-.29-.63-.42-1.32-.37-2.01,.05-.69,.27-1.36,.64-1.95,.37-.58,.89-1.07,1.5-1.4,.61-.33,1.29-.51,1.98-.51h8.16c.26,0,.51-.1,.69-.28,.18-.18,.28-.43,.28-.69s-.1-.51-.28-.69c-.18-.18-.43-.28-.69-.28h-8.16c-1.02,0-2.02,.26-2.92,.75-.89,.49-1.65,1.2-2.2,2.06-.55,.86-.87,1.84-.94,2.86-.07,1.02,.12,2.04,.55,2.96l2.6,5.61c-.68,.5-1.32,1.05-1.9,1.66l-2.9-6.25c-.6-1.3-.87-2.72-.77-4.14,.1-1.42,.55-2.8,1.32-4,.77-1.2,1.83-2.19,3.08-2.88,1.25-.69,2.66-1.05,4.08-1.04h12.29c1.43,0,2.83,.36,4.08,1.04,1.25,.69,2.31,1.68,3.08,2.88,.77,1.2,1.22,2.58,1.32,4,.1,1.42-.17,2.85-.77,4.14h0Z"/>
</svg>
